X: 03051
T: KENNEDYS' REEL
C: Bob McQuillen July 76
B: Bob's Note Book 03 #51
R: reel
%D:1976
Z: 2020 John Chambers <jc:trillian.mit.edu>
M: C
L: 1/8
K: G
D2 \
| GFGA BGGB | cedc BGAB | cedc BGGB | AGAB A2D2 |
| GFGA BGGB | cedc BGBd | gedB cedc | BGAF G2  :|
|: d2 \
| gbba bggb | agab geed | gdeg dBde | dgdB A3d |
| gbba bggb | agab geed | gdeg dedB | AGAB G2 :|
%%begintext align
%% For the Jim Kennedy Family of
%% Fitzwilliam, N.H., who have
%% done so much for Monadnock
%% Region Square Dancing.
%%endtext

%%sep 1 1 500

%%sep 1 1 500

